X:221
T: Braun Annel (3-24), S. 80
N: P0996
O: Lothringen
S: PINCK, Louis: Verklingende Weisen, Bd3, Metz 1933]
R: Brautwerbung]
M: 3/8
L: 1/16
K: E
B2 | =G2F2E2 | =D2E2D2 | =G2B2A2 | B4
B2 | B2A2=GF | E2E2E2 | FA=G2F2 | E4

